brandFactory_export/3.Masa/Mapa plano_3Masa.svg

<?xml version="1.0" encoding="UTF-8"?>
<svg width="24px" height="24px" viewBox="0 0 24 24" version="1.1" xmlns="http://www.w3.org/2000/svg" xmlns:xlink="http://www.w3.org/1999/xlink">
    <title>3.Masa/Mapa plano_3Masa</title>
    <g id="Symbols" stroke="none" stroke-width="1" fill="none" fill-rule="evenodd">
        <g id="3.Masa/Mapa-plano_3Masa" fill="#5CB615" fill-rule="nonzero">
            <path d="M22.1142857,21.1294118 L18.2487395,20.4941176 L18.2487395,1.67394958 L22.1142857,2.3092437 L22.1142857,21.1294118 L22.1142857,21.1294118 Z M11.0554622,21.8655462 L7.1092437,20.5848739 L7.1092437,1.82184874 L11.0554622,3.10252101 L11.0554622,21.8655462 Z M22.9915966,0.927731092 L17.6201681,0.043697479 C17.6033613,0.0403361345 17.5831933,0.0470588235 17.5663866,0.0470588235 C17.5428571,0.043697479 17.5226891,0.0336134454 17.4957983,0.0336134454 C17.4453782,0.0336134454 17.4016807,0.0504201681 17.3546218,0.0605042017 C17.3277311,0.0672268908 17.297479,0.0571428571 17.2705882,0.0672268908 L11.8151261,1.76470588 L6.58823529,0.0672268908 C6.56134454,0.0605042017 6.53109244,0.0672268908 6.50084034,0.0605042017 C6.45378151,0.0504201681 6.40672269,0.0302521008 6.35630252,0.0302521008 C6.33277311,0.0302521008 6.31260504,0.0403361345 6.29243697,0.0403361345 C6.27563025,0.043697479 6.25882353,0.0336134454 6.23865546,0.0369747899 L0.635294118,0.921008403 C0.268907563,0.978151261 0,1.29411765 0,1.66722689 L0,22.0168067 C0,22.2386555 0.0974789916,22.4470588 0.262184874,22.5882353 C0.430252101,22.7327731 0.65210084,22.7932773 0.870588235,22.7596639 L6.29579832,21.902521 L11.5798319,23.6201681 C11.6537815,23.6436975 11.7310924,23.6537815 11.8117647,23.6537815 C11.8890756,23.6537815 11.9630252,23.6403361 12.0369748,23.6201681 L17.5529412,21.902521 L22.7462185,22.7596639 C22.9647059,22.7932773 23.1865546,22.7361345 23.3579832,22.5915966 C23.5260504,22.4470588 23.6268908,22.2386555 23.6268908,22.0168067 L23.6268908,1.67058824 C23.6235294,1.30084034 23.3546218,0.988235294 22.9915966,0.927731092 Z" id="Mapa-plano_3Masa"></path>
        </g>
    </g>
</svg>

<svg width="24" height="24" viewBox="0 0 24 24" xmlns="http://www.w3.org/2000/svg"><path d="M22.114 21.13l-3.865-.636V1.674l3.865.635v18.82zm-11.059.736L7.11 20.585V1.822l3.946 1.28v18.764zM22.992.928L17.62.044c-.017-.004-.037.003-.054.003-.023-.003-.043-.013-.07-.013-.05 0-.094.016-.141.027-.027.006-.058-.004-.084.006l-5.456 1.698L6.588.067c-.027-.006-.057 0-.087-.006-.047-.01-.094-.03-.145-.03-.023 0-.043.01-.064.01C6.276.043 6.26.033 6.24.036L.635.921A.752.752 0 000 1.667v20.35a.753.753 0 00.87.743l5.426-.857 5.284 1.717a.76.76 0 00.232.034.85.85 0 00.225-.034l5.516-1.717 5.193.857a.763.763 0 00.612-.168.76.76 0 00.269-.575V1.67a.76.76 0 00-.635-.743z" fill="#5CB615" fill-rule="nonzero"/></svg>
